app/images/icons/telegram.svg

<svg width="24" height="24" viewBox="0 0 24 24" fill="none" xmlns="http://www.w3.org/2000/svg">
<path d="M12 0.375C18.4219 0.375 23.625 5.57812 23.625 12C23.625 18.4219 18.4219 23.625 12 23.625C5.57812 23.625 0.375 18.4219 0.375 12C0.375 5.57812 5.57812 0.375 12 0.375ZM17.6719 8.34375C17.8594 7.59375 17.3906 7.26562 16.875 7.45312L5.67188 11.7656C4.92188 12.0469 4.92188 12.5156 5.53125 12.7031L8.39062 13.5938L15.0469 9.375C15.375 9.1875 15.6562 9.32812 15.4219 9.51562L10.0312 14.3906L9.84375 17.3438C10.125 17.3438 10.2656 17.2031 10.4062 17.0625L11.8125 15.7031L14.7188 17.8594C15.2812 18.1406 15.6562 18 15.7969 17.3438L17.6719 8.34375Z" fill="#1D53C0"/>
</svg>

<svg width="24" height="24" fill="none" xmlns="http://www.w3.org/2000/svg"><path d="M12 .375C18.422.375 23.625 5.578 23.625 12S18.422 23.625 12 23.625.375 18.422.375 12 5.578.375 12 .375zm5.672 7.969c.187-.75-.281-1.078-.797-.89L5.672 11.765c-.75.28-.75.75-.14.937l2.859.89 6.656-4.218c.328-.188.61-.047.375.14l-5.39 4.876-.188 2.953c.281 0 .422-.14.562-.282l1.406-1.359 2.907 2.156c.562.282.937.141 1.078-.515l1.875-9z" fill="#1D53C0"/></svg>
